X: 107
M:6/8
L:1/8
K:D
vf/e/|\
dAF DFA | Bed cBA | dcd efg | fdf ece |
dAF DFA | Bed cBA | dcd efg | fdd d2:|
|:ug|\
fdf fga | ecd efg | dcd fed | cAA A2c |


